src/lib/assets/star-filled.svg

<svg fill="#fff" height="800" viewBox="0 0 24 24" width="800" xmlns="http://www.w3.org/2000/svg"><path d="m11.2691 4.41115c.2315-.51938.3473-.77907.5085-.85904.14-.06948.3044-.06948.4444 0 .1612.07997.277.33966.5085.85904l1.844 4.13693c.0685.15354.1027.23031.1557.2891.0468.05202.1041.09363.168.12211.0723.0322.1559.04102.3231.05866l4.5043.47541c.5655.05968.8482.08952.9741.21811.1093.11169.1601.26809.1373.42273-.0262.178-.2374.3683-.6598.749l-3.3647 3.0322c-.1248.1125-.1873.1688-.2268.2373-.035.0607-.0569.128-.0642.1976-.0083.0787.0091.1609.044.3254l.9398 4.4307c.118.5563.177.8344.0936.9938-.0725.1386-.2055.2352-.3596.2613-.1774.03-.4237-.112-.9163-.3961l-3.9235-2.263c-.1456-.084-.2184-.1259-.2958-.1424-.0685-.0145-.1393-.0145-.2078 0-.0774.0165-.1502.0584-.2958.1424l-3.92348 2.263c-.49258.2841-.73887.4261-.91628.3961-.15411-.0261-.28715-.1227-.35959-.2613-.08339-.1594-.0244-.4375.09359-.9938l.93976-4.4307c.03488-.1645.05232-.2467.04404-.3254-.00733-.0696-.0292-.1369-.0642-.1976-.03955-.0685-.10199-.1248-.22686-.2373l-3.36462-3.0322c-.42241-.3807-.63362-.571-.65988-.749-.0228-.15464.02801-.31104.13735-.42273.12588-.12859.40863-.15843.97413-.21811l4.50429-.47541c.16718-.01764.25076-.02646.32304-.05866.06395-.02848.12121-.07009.16807-.12211.05295-.05879.08717-.13556.15562-.2891z" stroke="#fff" stroke-linecap="round" stroke-linejoin="round" stroke-width="2"/></svg>

<?xml version="1.0" encoding="utf-8"?><!-- Uploaded to: SVG Repo, www.svgrepo.com, Generator: SVG Repo Mixer Tools -->
<svg width="800px" height="800px" viewBox="0 0 24 24" fill="#FFFFFF" xmlns="http://www.w3.org/2000/svg">
    <path d="M11.2691 4.41115C11.5006 3.89177 11.6164 3.63208 11.7776 3.55211C11.9176 3.48263 12.082 3.48263 12.222 3.55211C12.3832 3.63208 12.499 3.89177 12.7305 4.41115L14.5745 8.54808C14.643 8.70162 14.6772 8.77839 14.7302 8.83718C14.777 8.8892 14.8343 8.93081 14.8982 8.95929C14.9705 8.99149 15.0541 9.00031 15.2213 9.01795L19.7256 9.49336C20.2911 9.55304 20.5738 9.58288 20.6997 9.71147C20.809 9.82316 20.8598 9.97956 20.837 10.1342C20.8108 10.3122 20.5996 10.5025 20.1772 10.8832L16.8125 13.9154C16.6877 14.0279 16.6252 14.0842 16.5857 14.1527C16.5507 14.2134 16.5288 14.2807 16.5215 14.3503C16.5132 14.429 16.5306 14.5112 16.5655 14.6757L17.5053 19.1064C17.6233 19.6627 17.6823 19.9408 17.5989 20.1002C17.5264 20.2388 17.3934 20.3354 17.2393 20.3615C17.0619 20.3915 16.8156 20.2495 16.323 19.9654L12.3995 17.7024C12.2539 17.6184 12.1811 17.5765 12.1037 17.56C12.0352 17.5455 11.9644 17.5455 11.8959 17.56C11.8185 17.5765 11.7457 17.6184 11.6001 17.7024L7.67662 19.9654C7.18404 20.2495 6.93775 20.3915 6.76034 20.3615C6.60623 20.3354 6.47319 20.2388 6.40075 20.1002C6.31736 19.9408 6.37635 19.6627 6.49434 19.1064L7.4341 14.6757C7.46898 14.5112 7.48642 14.429 7.47814 14.3503C7.47081 14.2807 7.44894 14.2134 7.41394 14.1527C7.37439 14.0842 7.31195 14.0279 7.18708 13.9154L3.82246 10.8832C3.40005 10.5025 3.18884 10.3122 3.16258 10.1342C3.13978 9.97956 3.19059 9.82316 3.29993 9.71147C3.42581 9.58288 3.70856 9.55304 4.27406 9.49336L8.77835 9.01795C8.94553 9.00031 9.02911 8.99149 9.10139 8.95929C9.16534 8.93081 9.2226 8.8892 9.26946 8.83718C9.32241 8.77839 9.35663 8.70162 9.42508 8.54808L11.2691 4.41115Z" stroke="#FFFFFF" stroke-width="2" stroke-linecap="round" stroke-linejoin="round"/>
</svg>
